X: 1251
T: An Dro Pitaouer
R: reel
M: 4/4
K: Bminor
B2A2 B2Bd|c2e2 d2Bc|d2B2 G3B|A2c2 d2dc|
B2A2 B2Bd|c2e2 dcBc|d2B2 G3B|A2dc B4:|
B2d2 fdBd|gdBd fdBd|Bdf2 e3d|c2de fedc|
B2d2 fdBd|gdBd fdBd|Bdf2 e3d|c2dc B4:|

